images/work/plumewifi/plume-illustration.min.svg

<svg xmlns="http://www.w3.org/2000/svg" viewBox="0 0 104.4 92.3"><path d="M24.1 88.4l-22.5-39c-1.1-2-1.1-4.4 0-6.4l22.5-39c1.1-2 3.3-3.2 5.6-3.2h45c2.3 0 4.4 1.2 5.6 3.2l22.5 39c1.1 2 1.1 4.4 0 6.4l-22.5 39c-1.1 2-3.3 3.2-5.6 3.2h-45c-2.3 0-4.4-1.2-5.6-3.2zm2.3-86.7l15.6 33.3m-15.5 55.7l15.5-55.7m-41 11l41-11m35.8-33.3l-35.2 33.3m35.1 55.7l-35.1-55.7m60.5 11l-60.5-11" stroke="#e0dccc" stroke-width="1.5" stroke-linecap="round" stroke-linejoin="round" stroke-miterlimit="10" fill="none"/></svg>

<svg xmlns="http://www.w3.org/2000/svg" viewBox="0 0 104.4 92.3"><path d="M24.1 88.4l-22.5-39C.5 47.4.5 45 1.6 43L24.1 4C25.2 2 27.4.8 29.7.8h45C77 .8 79.1 2 80.3 4l22.5 39c1.1 2 1.1 4.4 0 6.4l-22.5 39c-1.1 2-3.3 3.2-5.6 3.2h-45c-2.3 0-4.4-1.2-5.6-3.2zm2.3-86.7L42 35M26.5 90.7L42 35M1 46l41-11M77.8 1.7L42.6 35m35.1 55.7L42.6 35m60.5 11L42.6 35" stroke="#e0dccc" stroke-width="1.5" stroke-linecap="round" stroke-linejoin="round" stroke-miterlimit="10" fill="none"/></svg>
